X: 21082
T: Kadril Van Mechelen
R: jig
M: 6/8
K: Aminor
a ^g2a|e2d c2d|e2A Bc|d2c B2A|
e2a ^g2a|e2d c2d|e2A B2c|dfe dcB||
A2c cBc|d2g g^fg|e2c cdc|agf edc|
B2c cBc|d2g g^fg|e2g c2e|dfe dcB||
K:A
|:A2E A2B|c3 BcB|A2A B2c|d2c B2A|
G2E A2B|c3 BcB|A2A B2c|dfe dcB:|A2|

